src/assets/icon-maintenance.svg

<svg xmlns="http://www.w3.org/2000/svg" width="107" height="107" viewBox="0 0 107 107" fill="none"><g clip-path="url(#clip0_150_324)"><path d="M53.6631 106.467C82.9303 106.467 106.656 82.7408 106.656 53.4735C106.656 24.2063 82.9303 0.480469 53.6631 0.480469C24.3958 0.480469 0.670044 24.2063 0.670044 53.4735C0.670044 82.7408 24.3958 106.467 53.6631 106.467Z" fill="#306B4D"></path><path d="M45.199 40.3906C45.8704 39.9629 46.9291 39.5848 48.186 40.2298L48.6187 40.4686C49.0453 40.7122 49.4344 40.9792 49.7934 41.2591C52.0599 43.0137 55.0998 43.0058 57.3669 41.2566C57.7216 40.9817 58.1095 40.7147 58.5422 40.4655L58.9749 40.2274C59.8224 39.7947 60.6817 39.7683 61.5342 40.1599C62.7395 40.7122 63.6896 41.9949 64.0756 43.5888C64.4181 45.0145 65.8499 45.8909 67.2793 45.5435C68.7038 45.1986 69.5796 43.7656 69.2335 42.3398C68.4694 39.1779 66.4176 36.5597 63.7467 35.3341C61.409 34.2631 58.857 34.3232 56.558 35.5022C56.3352 35.6164 56.1124 35.7379 55.8945 35.8649C55.2452 36.2381 54.6505 36.6425 54.1153 37.0599C53.7471 37.3453 53.4077 37.3428 53.045 37.0623C52.5055 36.6456 51.912 36.2381 51.2694 35.868C51.0448 35.7379 50.822 35.6164 50.6029 35.5047C47.919 34.1262 44.9111 34.2791 42.3463 35.9147C39.2599 37.8817 37.4365 41.6476 37.5942 45.9167C37.6875 47.9359 38.1048 49.9005 38.8358 51.7564C39.1297 52.5027 39.4747 53.2257 39.8638 53.9149C39.4955 56.0274 39.3286 58.9303 40.0853 62.1991C40.9366 65.8766 42.6151 68.4739 43.8721 70.0058C44.4017 70.6508 45.0523 71.1277 45.8004 71.4211C47.2053 71.9704 48.7863 71.7758 50.0352 70.9049C51.4296 69.9254 52.2336 68.2689 52.1839 66.4731C52.1256 64.3582 52.4834 62.6913 53.1665 61.8984C53.2469 61.8051 53.4255 61.5976 53.5783 61.4657C53.7317 61.5976 53.9103 61.8051 53.9907 61.8984C54.6726 62.6913 55.0298 64.3582 54.9733 66.4701C54.9224 68.2665 55.7245 69.9254 57.1202 70.9025C57.899 71.4493 58.8092 71.7316 59.7242 71.7316C60.2748 71.7316 60.8271 71.6285 61.3531 71.4211C62.0969 71.1308 62.7671 70.638 63.2827 70.0058C64.5408 68.4764 66.2206 65.8797 67.0719 62.1991C67.8458 58.8579 67.6525 55.8905 67.2664 53.7621C67.4788 53.2594 67.7679 52.518 68.1711 51.401C68.6676 50.022 67.952 48.5005 66.5729 48.0059C65.1945 47.5026 63.6742 48.2262 63.1765 49.6022C62.5167 51.4348 62.267 51.9503 62.2755 51.9503C62.2755 51.9503 62.2768 51.9503 62.2786 51.9479C61.8729 52.5573 61.7367 53.3036 61.8999 54.0162C62.2694 55.6131 62.5671 58.122 61.9012 61.0017C61.5127 62.6809 60.894 64.0415 60.2656 65.0916C60.1324 62.2562 59.3781 60.0191 58.0132 58.4357C57.5117 57.852 55.9866 56.0795 53.5783 56.0795C51.1761 56.0795 49.6504 57.8471 49.141 58.4357C47.7828 60.0167 47.0304 62.2353 46.8886 65.0886C46.2613 64.0391 45.6445 62.6784 45.2561 61.0017C44.5871 58.1165 44.8878 55.61 45.2561 54.0186C45.4205 53.311 45.2855 52.5647 44.8854 51.9583C44.4502 51.2973 44.0765 50.5743 43.7745 49.8096C43.259 48.5005 42.9638 47.1061 42.8932 45.546C42.7937 42.8916 44.0194 41.1425 45.199 40.3906Z" fill="white"></path><path d="M87.798 29.0565C87.7139 27.9965 87.005 27.0919 85.9967 26.7525L54.347 16.1361C53.8001 15.9544 53.2066 15.9544 52.6598 16.1361L36.8346 21.4443C35.4439 21.9107 34.6964 23.4138 35.1616 24.8057C35.6293 26.1952 37.1341 26.9391 38.5218 26.4775L53.5031 21.4517L82.6168 31.218C82.9292 37.7549 82.8126 56.1756 73.0812 70.2234C72.2466 71.4287 72.5473 73.0828 73.7527 73.9168C74.2136 74.236 74.7402 74.3888 75.2612 74.3888C76.102 74.3888 76.93 73.9899 77.4461 73.246C89.3029 56.1289 88.1503 33.4318 87.798 29.0565Z" fill="white"></path><path d="M66.3852 77.6808C62.6346 80.8919 58.3047 83.3106 53.5035 84.8756C48.7016 83.3106 44.3723 80.8919 40.6218 77.6808C24.2743 63.6821 23.9933 39.269 24.3885 31.2186L30.4614 29.181C31.8509 28.7146 32.5984 27.2084 32.1332 25.8196C31.6656 24.4301 30.1687 23.6862 28.7718 24.1478L21.0087 26.7524C20.0015 27.0918 19.2927 27.9989 19.2086 29.057C18.7421 34.8832 17.4165 64.7967 37.1695 81.7137C41.6805 85.5759 46.9163 88.4292 52.7308 90.1998C52.9824 90.2747 53.2426 90.3139 53.5035 90.3139C53.7637 90.3139 54.0245 90.2747 54.2756 90.1998C60.0907 88.4292 65.3265 85.5759 69.8374 81.7137C70.9508 80.7599 71.0802 79.0856 70.1277 77.9711C69.1764 76.8541 67.4997 76.7295 66.3852 77.6808Z" fill="white"></path></g><defs><clipPath id="clip0_150_324"><rect width="105.98" height="105.98" fill="white" transform="translate(0.670044 0.480469)"></rect></clipPath></defs></svg>

<?xml version="1.0" encoding="UTF-8"?>
<svg id="Layer_1" xmlns="http://www.w3.org/2000/svg" version="1.1" xmlns:xlink="http://www.w3.org/1999/xlink" viewBox="0 0 107 107">
  <!-- Generator: Adobe Illustrator 29.8.3, SVG Export Plug-In . SVG Version: 2.1.1 Build 3)  -->
  <defs>
    <style>
      .st0 {
        fill: #fff;
      }

      .st1 {
        fill: none;
      }

      .st2 {
        fill: #336799;
      }

      .st3 {
        clip-path: url(#clippath);
      }
    </style>
    <clipPath id="clippath">
      <rect class="st1" x=".67" y=".48" width="105.98" height="105.98"/>
    </clipPath>
  </defs>
  <g class="st3">
    <g>
      <path class="st2" d="M53.66,106.47c29.27,0,52.99-23.73,52.99-52.99S82.93.48,53.66.48.67,24.21.67,53.47s23.73,52.99,52.99,52.99Z"/>
      <path class="st0" d="M45.2,40.39c.67-.43,1.73-.81,2.99-.16l.43.24c.43.24.82.51,1.17.79,2.27,1.75,5.31,1.75,7.57,0,.35-.27.74-.54,1.18-.79l.43-.24c.85-.43,1.71-.46,2.56-.07,1.21.55,2.16,1.83,2.54,3.43.34,1.43,1.77,2.3,3.2,1.95,1.42-.34,2.3-1.78,1.95-3.2-.76-3.16-2.82-5.78-5.49-7.01-2.34-1.07-4.89-1.01-7.19.17-.22.11-.45.24-.66.36-.65.37-1.24.78-1.78,1.19-.37.29-.71.28-1.07,0-.54-.42-1.13-.82-1.78-1.19-.22-.13-.45-.25-.67-.36-2.68-1.38-5.69-1.23-8.26.41-3.09,1.97-4.91,5.73-4.75,10,.09,2.02.51,3.98,1.24,5.84.29.75.64,1.47,1.03,2.16-.37,2.11-.54,5.02.22,8.28.85,3.68,2.53,6.27,3.79,7.81.53.65,1.18,1.12,1.93,1.42,1.4.55,2.99.35,4.23-.52,1.39-.98,2.2-2.64,2.15-4.43-.06-2.11.3-3.78.98-4.57.08-.09.26-.3.41-.43.15.13.33.34.41.43.68.79,1.04,2.46.98,4.57-.05,1.8.75,3.46,2.15,4.43.78.55,1.69.83,2.6.83.55,0,1.1-.1,1.63-.31.74-.29,1.41-.78,1.93-1.42,1.26-1.53,2.94-4.13,3.79-7.81.77-3.34.58-6.31.19-8.44.21-.5.5-1.24.9-2.36.5-1.38-.22-2.9-1.6-3.4-1.38-.5-2.9.22-3.4,1.6-.66,1.83-.91,2.35-.9,2.35,0,0,0,0,0,0-.41.61-.54,1.36-.38,2.07.37,1.6.67,4.11,0,6.99-.39,1.68-1.01,3.04-1.64,4.09-.13-2.84-.89-5.07-2.25-6.66-.5-.58-2.03-2.36-4.43-2.36s-3.93,1.77-4.44,2.36c-1.36,1.58-2.11,3.8-2.25,6.65-.63-1.05-1.24-2.41-1.63-4.09-.67-2.89-.37-5.39,0-6.98.16-.71.03-1.45-.37-2.06-.44-.66-.81-1.38-1.11-2.15-.52-1.31-.81-2.7-.88-4.26-.1-2.65,1.13-4.4,2.31-5.16Z"/>
      <path class="st0" d="M87.8,29.06c-.08-1.06-.79-1.96-1.8-2.3l-31.65-10.62c-.55-.18-1.14-.18-1.69,0l-15.83,5.31c-1.39.47-2.14,1.97-1.67,3.36.47,1.39,1.97,2.13,3.36,1.67l14.98-5.03,29.11,9.77c.31,6.54.2,24.96-9.54,39.01-.83,1.21-.53,2.86.67,3.69.46.32.99.47,1.51.47.84,0,1.67-.4,2.18-1.14,11.86-17.12,10.7-39.81,10.35-44.19Z"/>
      <path class="st0" d="M66.39,77.68c-3.75,3.21-8.08,5.63-12.88,7.19-4.8-1.57-9.13-3.98-12.88-7.19-16.35-14-16.63-38.41-16.23-46.46l6.07-2.04c1.39-.47,2.14-1.97,1.67-3.36-.47-1.39-1.96-2.13-3.36-1.67l-7.76,2.6c-1.01.34-1.72,1.25-1.8,2.3-.47,5.83-1.79,35.74,17.96,52.66,4.51,3.86,9.75,6.72,15.56,8.49.25.07.51.11.77.11s.52-.04.77-.11c5.82-1.77,11.05-4.62,15.56-8.49,1.11-.95,1.24-2.63.29-3.74-.95-1.12-2.63-1.24-3.74-.29Z"/>
    </g>
  </g>
</svg>
